!!!Melodie: wachet auf, ruft uns die Stimme
!!!Typ: Lied
**kern	**silbe	**silbe	**silbe	**silbe	**silbe	**silbe	**silbe	**silbe	**silbe	**silbe	**silbe	**silbe	**silbe	**silbe	**silbe	**silbe	**silbe	**silbe
*clefG2	*lang:DE	*lang:DE	*lang:DE	*lang:DE	*lang:DE	*lang:DE	*lang:DE	*lang:DE	*lang:DE	*lang:DE	*lang:DE	*lang:DE	*lang:DE	*lang:DE	*lang:DE	*lang:DE	*lang:DE	*lang:DE
*M4/4	*	*	*	*	*	*	*	*	*	*	*	*	*	*	*	*	*	*
*met(c)	*	*	*	*	*	*	*	*	*	*	*	*	*	*	*	*	*	*
2c	Ei#	uns’#	.	Nicht	Uns’#	.	O	send’	.	Schau	Seit	.	Dei#	wol#	.	Hei#	A#	.
2e	#ner	#re	.	wir	#re	.	Herr	auch	.	auf	Jahr#	.	#ne	#len	.	#land,	#ber	.
2.g	ist’s,	Lei#	.	ha#	Kraft	.	Je#	uns	.	dei#	#tau#	.	Lie#	wir	.	dei#	du	.
4g	an	#ber,	.	#ben	ist	.	#su,	hi#	.	#ne	#sen#	.	#be,	den	.	#ne	wirst	.
4g	dem	uns’#	.	dich	schwach	.	Eh#	#naus	.	Mil#	#den	.	dei#	See#	.	grö#	für	.
4g	wir	#re	.	er#	und	.	#ren#	in	.	#li#	ist	.	#ne	#len	.	#ßten	uns	.
(4a	hang#	Her#	.	#wäh#	nich#	.	#kö#	Gna#	.	#o#	ih#	.	Wun#	prei#	.	Din#	strei#	.
4g	|	|	.	|	|	.	|	|	.	|	|	.	|	|	.	|	|	.
2a)	|	|	.	|	|	.	|	|	.	|	|	.	|	|	.	|	|	.
2g	#en,	#zen	.	#let,	#tig,	.	#nig,	#den,	.	#nen,	#nen	.	#den,	#sen,	.	#ge	#ten,	.
=	=	=	=	=	=	=	=	=	=	=	=	=	=	=	=	=	=	=
4r	%	%	.	%	%	.	%	%	.	%	%	.	%	%	.	%	%	.
4g	der	ge#	.	du	und	.	die	viel’	.	die	kein	.	die	und	.	be#	und	.
4cc	für	#hö#	.	selbst	kei#	.	Ernt’	fro#	.	noch	E#	.	uns	auf	.	#gin#	uns	.
4g	uns	#ren	.	hast	#ner	.	ist	#he	.	im	#van#	.	ein	dein	.	#est	mit	.
4cc	in	dir,	.	uns’#	ist	.	groß,	Gäs#	.	To#	#ge#	.	ew’#	Kreuz	.	du	dei#	.
4ee	den	o	.	#re	zum	.	der	#te	.	#des#	#li#	.	#ges	so	.	still	#nen	.
4dd	Tod	Mann	.	Zahl	Wer#	.	Schnit#	ein#	.	#schat#	#um	.	Heil	lan#	.	und	Au#	.
4ee	ge#	der	.	ge#	#ke	.	#ter	#zu#	.	#ten	er#	.	er#	#ge	.	ge#	#gen	.
2dd	#gang#	Schmer#	.	#zäh#	tüch#	.	we#	#la#	.	woh#	#schie#	.	#fun#	wei#	.	#rin#	lei#	.
2g	#en,	#zen,	.	#let,	#tig,	.	#nig,	#den	.	#nen,	#nen,	.	#den,	#sen,	.	#ge;	#ten,	.
=	=	=	=	=	=	=	=	=	=	=	=	=	=	=	=	=	=	=
4r	%	%	.	%	%	.	%	%	.	%	%	.	%	%	.	%	%	.
4g	und	in	.	nach	der	.	d’rum	zum	.	von	kein	.	dein	bis	.	was	auf	.
4cc	uns	dei#	.	dei#	nicht	.	sen#	Mahl	.	dei#	gna#	.	treu#	es	.	sind	dei#	.
4g	er#	#ner	.	#nem	von	.	#de	in	.	#nem	#den#	.	#es	durch	.	wir	#ne	.
4a	#kauft	Lie#	.	ew’#	dir	.	treu#	dei#	.	Him#	#rei#	.	Herz,	ih#	.	Ar#	Kraft	.
4e	mit	#be	.	#gen	die	.	#e	#nes	.	#mel#	#cher	.	das	#re	.	#me,	ver#	.
4f	sei#	ruht	.	Gna#	Stär#	.	Zeu#	Va#	.	#rei#	Mor#	.	für	Her#	.	Herr,	#trau#	.
4d	#nem	sich’s	.	#den#	#ke	.	#gen	#ters	.	#che	#gen#	.	uns	#zen	.	vor	#en	.
1c	Blut;	gut!	.	#rat.	hat.	.	aus;	Haus.	.	fern.	#stern.	.	fleht,	geht.	.	dir?	wir;	.
=:|:	=	=	=	=	=	=	=	=	=	=	=	=	=	=	=	=	=	=
4r	.	%	%	.	%	%	.	%	%	.	%	%	.	%	%	.	%	%
4g	.	Nimm	Be#	.	D’rum	denn	.	Wohl	be#	.	Glanz	geh	.	Denn	es	.	dein	wächst
2.g	.	uns	#rei#	.	brich	Ar#	.	dem,	#ruft	.	der	auf,	.	kräf#	rich#	.	Senf#	end#
4f	.	zum	#te	.	den	#mut	.	den	zum	.	Ge#	denn	.	#tig	#tet	.	#korn,	#lich
4e	.	Ei#	dir	.	eig’#	ist	.	dei#	A#	.	#rech#	es	.	ist	und	.	arm	oh#
4d	.	#gen#	zum	.	#nen	Ge#	.	#ne	#bend#	.	#tig#	ist	.	dein	durch#	.	und	#ne
2c	.	#tum,	Ruhm	.	Sinn,	#winn	.	Wahl	#mahl	.	#keit,	Zeit!	.	Wort,	#bohrt	.	klein,	Schein
=:|	=	=	=	=	=	=	=	=	=	=	=	=	=	=	=	=	=	=
4d	.	.	dei#	.	.	für	.	.	im	.	.	Komm,	.	.	Geist	.	.	doch
4e	.	.	#ne	.	.	den	.	.	Reich	.	.	Herr	.	.	und	.	.	zum
2f	.	.	Kin#	.	.	Him#	.	.	Got#	.	.	Je#	.	.	See#	.	.	Bau#
2e	.	.	#der!	.	.	#mel;	.	.	#tes!	.	.	#su,	.	.	#le;	.	.	#me,
=	=	=	=	=	=	=	=	=	=	=	=	=	=	=	=	=	=	=
2g	.	.	Ver#	.	.	wer	.	.	Da	.	.	Zieh	.	.	dein	.	.	weil
4a	.	.	#birg	.	.	in	.	.	ruht	.	.	uns	.	.	Joch	.	.	du,
4b-	.	.	uns	.	.	sich	.	.	der	.	.	vo#	.	.	ist	.	.	Herr
2cc	.	.	nicht	.	.	schwach,	.	.	Streit,	.	.	#ran,	.	.	süß,	.	.	Christ,
=	=	=	=	=	=	=	=	=	=	=	=	=	=	=	=	=	=	=
2cc	.	.	das	.	.	folgt,	.	.	da	.	.	und	.	.	dein	.	.	sein
4ee	.	.	Gna#	.	.	Herr,	.	.	währt’	.	.	mach	.	.	Geist	.	.	Hü#
4dd	.	.	#den#	.	.	dir	.	.	die	.	.	uns	.	.	ge#	.	.	#ter
2cc	.	.	#licht	.	.	nach,	.	.	Freud’	.	.	Bahn,	.	.	#wiss,	.	.	bist,
=	=	=	=	=	=	=	=	=	=	=	=	=	=	=	=	=	=	=
2g	.	.	von	.	.	und	.	.	heut’,	.	.	gib	.	.	und	.	.	der
4cc	.	.	dei#	.	.	trägt	.	.	ges#	.	.	dei#	.	.	of#	.	.	es
4g	.	.	#nem	.	.	mit	.	.	#tern	.	.	#ne	.	.	#fen	.	.	mit
4a	.	.	heil'#	.	.	Eh#	.	.	und	.	.	Tü#	.	.	steht	.	.	Se#
4e	.	.	#gen	.	.	#ren	.	.	in	.	.	#ren	.	.	dein	.	.	#gen
4f	.	.	An#	.	.	dei#	.	.	E#	.	.	auf#	.	.	Pa#	.	.	ü#
4d	.	.	#ge#	.	.	#ne	.	.	#wig#	.	.	#ge#	.	.	#ra#	.	.	#ber#
1c	.	.	#gsicht.	.	.	Schmach.	.	.	#keit.	.	.	#tan.	.	.	#dies.	.	.	#gießt.
==	==	==	==	==	==	==	==	==	==	==	==	==	==	==	==	==	==	==
*-	*-	*-	*-	*-	*-	*-	*-	*-	*-	*-	*-	*-	*-	*-	*-	*-	*-	*-
